admin/src/theme/img/layers.svg

<?xml version="1.0" encoding="UTF-8"?><svg version="1.1" width="22px" height="22px" viewBox="0 0 22.0 22.0" xmlns="http://www.w3.org/2000/svg" xmlns:xlink="http://www.w3.org/1999/xlink"><defs><clipPath id="i0"><path d="M1500,0 L1500,1024 L0,1024 L0,0 L1500,0 Z"></path></clipPath><clipPath id="i1"><path d="M18.7635479,11.0850254 L19.7351312,11.8039971 C19.8461186,11.8861278 19.8695116,12.0426809 19.7873809,12.1536683 C19.773843,12.1719628 19.7578704,12.1883231 19.7399056,12.2022956 L10.1534852,19.6584004 C10.0632075,19.7286164 9.93679247,19.7286164 9.84651485,19.6584004 L0.260094381,12.2022956 C0.151107583,12.1175281 0.131473971,11.9604592 0.21624148,11.8514724 C0.230214053,11.8335077 0.246574278,11.817535 0.264868783,11.8039971 L1.2364521,11.0850254 C1.32657899,11.0183315 1.45008625,11.0197982 1.53860392,11.0886136 L9.84655893,17.5473786 C9.93681938,17.6175488 10.0631806,17.6175488 10.1534411,17.5473786 L18.4613961,11.0886136 C18.5499138,11.0197982 18.673421,11.0183315 18.7635479,11.0850254 Z M10.1534852,0.119377342 L19.7462796,7.58043972 C19.8552664,7.66520723 19.8749001,7.82227613 19.7901325,7.93126293 C19.7773917,7.94764403 19.7626607,7.96237498 19.7462796,7.97511583 L10.1534852,15.4361782 C10.0632075,15.5063941 9.93679247,15.5063941 9.84651485,15.4361782 L0.253720356,7.97511583 C0.144733558,7.89034832 0.125099945,7.73327942 0.209867455,7.62429262 C0.222608308,7.60791153 0.237339258,7.59318058 0.253720356,7.58043972 L9.84651485,0.119377342 C9.93679247,0.049161414 10.0632075,0.049161414 10.1534852,0.119377342 Z M9.84641062,2.23069979 L2.97556203,7.58052083 C2.86662002,7.6653459 2.84706939,7.82242515 2.93189446,7.93136716 C2.94458966,7.94767178 2.9592574,7.96233952 2.97556203,7.97503472 L9.84641062,13.3248558 C9.93672879,13.3951798 10.0632712,13.3951798 10.1535894,13.3248558 L17.024438,7.97503472 C17.13338,7.89020965 17.1529306,7.7331304 17.0681055,7.6241884 C17.0554103,7.60788377 17.0407426,7.59321604 17.024438,7.58052083 L10.1535894,2.23069979 C10.0632712,2.16037572 9.93672879,2.16037572 9.84641062,2.23069979 Z"></path></clipPath></defs><g transform="translate(-1421.0 -777.0)"><g clip-path="url(#i0)"><g transform="translate(1412.0 768.0)"><g transform="translate(10.0 10.0)"><g clip-path="url(#i1)"><polygon points="0.157194017,0.0667153959 19.842806,0.0667153959 19.842806,19.7110624 0.157194017,19.7110624 0.157194017,0.0667153959" stroke="none" fill="#0063AF"></polygon></g><path d="M9.84651485,19.6584004 L0.260094381,12.2022956 C0.151107583,12.1175281 0.131473971,11.9604592 0.21624148,11.8514724 C0.230214053,11.8335077 0.246574278,11.817535 0.264868783,11.8039971 L1.2364521,11.0850254 C1.32657899,11.0183315 1.45008625,11.0197982 1.53860392,11.0886136 L9.84655893,17.5473786 C9.93681938,17.6175488 10.0631806,17.6175488 10.1534411,17.5473786 L18.4613961,11.0886136 C18.5499138,11.0197982 18.673421,11.0183315 18.7635479,11.0850254 L19.7351312,11.8039971 C19.8461186,11.8861278 19.8695116,12.0426809 19.7873809,12.1536683 C19.773843,12.1719628 19.7578704,12.1883231 19.7399056,12.2022956 L10.1534852,19.6584004 C10.0632075,19.7286164 9.93679247,19.7286164 9.84651485,19.6584004 Z M9.84651485,15.4361782 L0.253720356,7.97511583 C0.144733558,7.89034832 0.125099945,7.73327942 0.209867455,7.62429262 C0.222608308,7.60791153 0.237339258,7.59318058 0.253720356,7.58043972 L9.84651485,0.119377342 C9.93679247,0.049161414 10.0632075,0.049161414 10.1534852,0.119377342 L19.7462796,7.58043972 C19.8552664,7.66520723 19.8749001,7.82227613 19.7901325,7.93126293 C19.7773917,7.94764403 19.7626607,7.96237498 19.7462796,7.97511583 L10.1534852,15.4361782 C10.0632075,15.5063941 9.93679247,15.5063941 9.84651485,15.4361782 Z M10.1535894,13.3248558 L17.024438,7.97503472 C17.13338,7.89020965 17.1529306,7.7331304 17.0681055,7.6241884 C17.0554103,7.60788377 17.0407426,7.59321604 17.024438,7.58052083 L10.1535894,2.23069979 C10.0632712,2.16037572 9.93672879,2.16037572 9.84641062,2.23069979 L2.97556203,7.58052083 C2.86662002,7.6653459 2.84706939,7.82242515 2.93189446,7.93136716 C2.94458966,7.94767178 2.9592574,7.96233952 2.97556203,7.97503472 L9.84641062,13.3248558 C9.93672879,13.3951798 10.0632712,13.3951798 10.1535894,13.3248558 Z" stroke="#0065B4" stroke-width="1" fill="none" stroke-miterlimit="10"></path></g></g></g></g></svg>

<svg width="22" height="22" viewBox="0 0 22 22" xmlns="http://www.w3.org/2000/svg">
  <defs>
    <clipPath id="a">
      <path d="M1500 0v1024H0V0h1500Z"/>
    </clipPath>
    <clipPath id="b">
      <path d="m18.7635479 11.0850254.9715833.7189717c.1109874.0821307.1343804.2386838.0522497.3496712a.2499952.2499952 0 0 1-.0474753.0486273l-9.5864204 7.4561048c-.0902777.070216-.21669273.070216-.30697035 0L.26009438 12.2022956c-.1089868-.0847675-.1286204-.2418364-.0438529-.3508232a.24999998.24999998 0 0 1 .0486273-.0474753l.97158332-.7189717c.09012689-.0666939.21363415-.0652272.30215182.0035882l8.30795501 6.458765c.09026045.0701702.21662167.0701702.30688217 0l8.307955-6.458765c.0885177-.0688154.2120249-.0702821.3021518-.0035882ZM10.1534852.11937734l9.5927944 7.46106238c.1089868.08476751.1286205.24183641.0438529.35082321a.24999786.24999786 0 0 1-.0438529.0438529l-9.5927944 7.46106237c-.0902777.0702159-.21669273.0702159-.30697035 0L.25372035 7.97511583c-.1089868-.08476751-.1286204-.24183641-.0438529-.35082321a.25000043.25000043 0 0 1 .0438529-.0438529L9.84651486.11937734c.09027762-.07021593.21669265-.07021593.30697035 0ZM9.84641062 2.2306998 2.97556203 7.58052083c-.10894201.08482507-.12849264.24190432-.04366757.35084633a.24999971.24999971 0 0 0 .04366757.04366756l6.87084859 5.34982108c.09031817.070324.21686058.070324.30717878 0l6.8708486-5.34982108c.108942-.08482507.1284926-.24190432.0436675-.35084632a.2500004.2500004 0 0 0-.0436675-.04366757l-6.8708486-5.34982104c-.0903182-.07032407-.21686061-.07032407-.30717878 0Z"/>
    </clipPath>
  </defs>
  <g clip-path="url(#a)" transform="translate(-1421 -777)">
    <g clip-path="url(#b)" transform="translate(1422 778)">
      <path fill="#0063AF" d="M.15719402.0667154H19.842806v19.644347H.15719402V.0667154z"/>
    </g>
    <path d="m1431.84651485 797.6584004-9.58642047-7.4561048c-.1089868-.0847675-.1286204-.2418364-.0438529-.3508232a.24999998.24999998 0 0 1 .0486273-.0474753l.97158332-.7189717c.09012689-.0666939.21363415-.0652272.30215182.0035882l8.30795501 6.458765c.09026045.0701702.21662167.0701702.30688217 0l8.307955-6.458765c.0885177-.0688154.2120249-.0702821.3021518-.0035882l.9715833.7189717c.1109874.0821307.1343804.2386838.0522497.3496712a.2499952.2499952 0 0 1-.0474753.0486273l-9.5864204 7.4561048c-.0902777.070216-.21669273.070216-.30697035 0Zm0-4.2222222-9.5927945-7.46106237c-.1089868-.08476751-.1286204-.24183641-.0438529-.35082321a.25000043.25000043 0 0 1 .0438529-.0438529l9.5927945-7.46106238c.09027762-.07021593.21669265-.07021593.30697035 0l9.5927944 7.46106238c.1089868.08476751.1286205.24183641.0438529.35082321a.24999786.24999786 0 0 1-.0438529.0438529l-9.5927944 7.46106237c-.0902777.0702159-.21669273.0702159-.30697035 0Zm.30707455-2.1113224 6.8708486-5.34982108c.108942-.08482507.1284926-.24190432.0436675-.35084632a.2500004.2500004 0 0 0-.0436675-.04366757l-6.8708486-5.34982104c-.0903182-.07032407-.21686061-.07032407-.30717878 0l-6.87084859 5.34982104c-.10894201.08482507-.12849264.24190432-.04366757.35084633a.24999971.24999971 0 0 0 .04366757.04366756l6.87084859 5.34982108c.09031817.070324.21686058.070324.30717878 0Z" stroke="#0065B4" fill="none" stroke-miterlimit="10"/>
  </g>
</svg>
